X:53
T:Free Mason’s Salute. RHu.053
S:R.Hughes MS,1823,Whitchurch,Shrops.
A:Whitchurch, Shropshire
Z:Neil Brookes 2006
M:6/8
L:1/8
Q:3/8=120
R:JIg
K:D
A|def fed|cde ecA|def fed|eaa a2::!
f|gab bag|fed a2f|gfg eag|fddd2:|

